!!!SOCIAL_FUNCTION: songs connected with ceremonies
!!!SOCIAL_FUNCTION2: Bear dance
!!!PDT:	1929
!!!LING_GROUP: Caddoan
!!!LANG: Non-Tone
!!!REG: Oklahoma
!!!COM: Anon.
!!!OTL: A Woman Stands Among the Trees
!!!ODT: <1920//
!!!MPN: Tutukrawitsu [He overtook the enemy, Wicita Blain]
!!!MLC: Pawnee, Oklahoma, United States of America
!! Song was recorded either 1919 or 1920.
!!!AGN: monody
!!!AMT: irregular
!!!RWG: Transcribed pitches, durations, and meters are only approximate.
!! Drum Tempo:  MM116 changing to 76
!! Drum-rhythm: (8 8 8 8 8 8)
**kern	**silbe	**words	**words
*ICvox	*LPawnee	*LPawnee	*LEnglish
*Imale	*	*	*
*clefF4	*	*	*
*k[f#c#]	*	*	*
*M3/4	*M3/4	*M3/4	*M3/4
*MM76	*MM76	*MM76	*MM76
*[A,B,C,B]	*[A,B,C,B]	*[A,B,C,B]	*[A,B,C,B]
*>A	*>A	*>A	*>A
=1-	=1-	=1-	=1-
12e	Ti	Ti	He
12e	wa-	waka	said
12e	-ka	.	.
8e	a	.	.
8e	a	.	.
(8d	a	.	.
8B);	|	.	.
*M2/4	*M2/4	*M2/4	*M2/4
=2	=2	=2	=2
16e	tsa-	tsapat	woman
8.e	-pat	.	.
8d	ti	ti	is
(16d	re	re	here
16B)	|	.	.
*M3/4	*M3/4	*M3/4	*M3/4
=3	=3	=3	=3
8B	ka-	karikii	standing (among trees)
8B	-ri-	.	.
8B	-ki-	.	.
8B	-i	.	.
4r	.	.	.
*M2/4	*M2/4	*M2/4	*M2/4
=4	=4	=4	=4
8B	we	we	now
16B	rex	rex	I
16B	ra	ra	have
8e	i-	itawi	mentioning
8e	-ta-	.	.
=5	=5	=5	=5
8e	-wi	.	.
8e	a	.	.
(16d	a	.	.
8.B)	|	.	.
*>B	*>B	*>B	*>B
=6	=6	=6	=6
16e	tsa-	tsapat	woman
8.e	-pat	.	.
8d	ti	ti	is
(16d	re	re	here
16B)	|	.	.
*M3/4	*M3/4	*M3/4	*M3/4
=7	=7	=7	=7
8B	ka-	karikii	standing (among trees)
8B	-ri-	.	.
(16.d	-ki-	.	.
32B)	|	.	.
8B	-i	.	.
(16.B	we	we	now
32A)	|	.	.
8F#;	a	.	.
*M3/8	*M3/8	*M3/8	*M3/8
=8	=8	=8	=8
(16.d	e-	esi	loudly
32B)	|	.	.
8B	-si	.	.
16d	ru	ru	does
16B	re	re	she
*M3/4	*M3/4	*M3/4	*M3/4
=9	=9	=9	=9
8F#	ka-	karikii	standing
[8F#	-ri-	.	.
8F#]	|	.	.
(16.F#	-ki-	.	.
32E)	|	.	.
(8F#	-i	.	.
8E)	|	.	.
=10	=10	=10	=10
16B	tsa-	tsapat	woman
8.B	-pat	.	.
8F#	ti	ti	is
(16F#	re	re	here
16E)	|	.	.
8E	ka-	karikii	standing (among trees)
8E	-ri-	.	.
*M2/4	*M2/4	*M2/4	*M2/4
=11	=11	=11	=11
4E	-ri-	.	.
4D	-i	.	.
=12	=12	=12	=12
8E	e-	esi	loudly
8E	-si	.	.
8D	ru	ru	does
8D	re	re	she
=13	=13	=13	=13
8BB	ka-	karikii	standing (among trees)
8BB	-ri-	.	.
8BB	-ki-	.	.
8BB	-i	.	.
=14	=14	=14	=14
2BB	a	.	.
=15	=15	=15	=15
2B	a	.	.
!! Fine
*>C	*>C	*>C	*>C
=16	=16	=16	=16
12d	ra	ra	have
12d	tsiks	tsiks	spirit
12d	ta	ta	have
4B	ri	ri	do
*M3/4	*M3/4	*M3/4	*M3/4
=17	=17	=17	=17
8e	ka-	kake	grunting
8d	-ke	.	.
8e	a	.	.
8e	a-	ahu	shouting
(8d	-hu	.	.
8B)	|	.	.
==	==	==	==
*-	*-	*-	*-
!!!HAO: [no description]
!!!HTX: [no free translation]
!!!CNT: Pawnee
!!!TXO: Pawnee
!!!OCY: United States
!!!OCL: Frances Densmore
!!!YOR: Frances Densmore, "Pawnee Music"
!!!YOR: Bulletin 93, page 40, No. 13
!!!PPR: Smithsonian Institution, Bureau of American Ethnology
!!!PPR: Government Printing Office
!!!PDT: 1926
!!!PPP: Washington, DC, United States of America
!!!YEC: Electronic Copyright 2000 David Huron
!!!YER: September 2000
!!!YEN: United States of America
!!!ENC: David Huron
!!!RDT: September 2, 2000
!!!EEV: Release 1.0
!!!AIN: tom, vox
